2 Export/Icons/Rounded/Shopping cart.svg

<svg xmlns="http://www.w3.org/2000/svg" xmlns:xlink="http://www.w3.org/1999/xlink" width="24" height="24" viewBox="0 0 24 24">
  <defs>
    <path id="shopping-cart-a" d="M7 18c-1.1 0-1.99.9-1.99 2S5.9 22 7 22s2-.9 2-2-.9-2-2-2zM1 3c0 .55.45 1 1 1h1l3.6 7.59-1.35 2.44C4.52 15.37 5.48 17 7 17h11c.55 0 1-.45 1-1s-.45-1-1-1H7l1.1-2h7.45c.75 0 1.41-.41 1.75-1.03l3.58-6.49A.996.996 0 0 0 20.01 4H5.21l-.67-1.43a.993.993 0 0 0-.9-.57H2c-.55 0-1 .45-1 1zm16 15c-1.1 0-1.99.9-1.99 2s.89 2 1.99 2 2-.9 2-2-.9-2-2-2z"/>
  </defs>
  <g fill="none" fill-rule="evenodd">
    <polygon points="0 0 24 0 24 24 0 24"/>
    <mask id="shopping-cart-b" fill="#fff">
      <use xlink:href="#shopping-cart-a"/>
    </mask>
    <use fill="#000" xlink:href="#shopping-cart-a"/>
    <g fill="#000" mask="url(#shopping-cart-b)">
      <rect width="24" height="24"/>
    </g>
  </g>
</svg>

<svg xmlns="http://www.w3.org/2000/svg" xmlns:xlink="http://www.w3.org/1999/xlink" width="24" height="24" viewBox="0 0 24 24">
  <defs>
    <path id="shopping-cart-a" d="M7,18 C5.9,18 5.01,18.9 5.01,20 C5.01,21.1 5.9,22 7,22 C8.1,22 9,21.1 9,20 C9,18.9 8.1,18 7,18 Z M1,3 C1,3.55 1.45,4 2,4 L3,4 L6.6,11.59 L5.25,14.03 C4.52,15.37 5.48,17 7,17 L18,17 C18.55,17 19,16.55 19,16 C19,15.45 18.55,15 18,15 L7,15 L8.1,13 L15.55,13 C16.3,13 16.96,12.59 17.3,11.97 L20.88,5.48 C21.25,4.82 20.77,4 20.01,4 L5.21,4 L4.54,2.57 C4.38,2.22 4.02,2 3.64,2 L2,2 C1.45,2 1,2.45 1,3 Z M17,18 C15.9,18 15.01,18.9 15.01,20 C15.01,21.1 15.9,22 17,22 C18.1,22 19,21.1 19,20 C19,18.9 18.1,18 17,18 Z"/>
  </defs>
  <g fill="none" fill-rule="evenodd">
    <polygon points="0 0 24 0 24 24 0 24"/>
    <mask id="shopping-cart-b" fill="#fff">
      <use xlink:href="#shopping-cart-a"/>
    </mask>
    <use fill="#000" xlink:href="#shopping-cart-a"/>
    <g fill="#000" mask="url(#shopping-cart-b)">
      <rect width="24" height="24"/>
    </g>
  </g>
</svg>
